archdroid-icon-theme/Archdroid-Amber/places/scalable/user-trash.svg

<svg fill="#FFC107" height="48" viewBox="0 0 48 48" width="48" xmlns="http://www.w3.org/2000/svg"><path d="m18.171875 4-2 2h-8.171875v8h2v24c0 3.28994 2.71006 6 6 6h16c3.28994 0 6-2.71006 6-6v-24h2v-8h-2-6.171875l-2-2zm1.65625 4h8.34375l1.164063 1.164063h6.90625v3.001953h-24.490235v-3.001953h6.912109zm-5.828125 8h20v22c0 1.13006-.86994 2-2 2h-16c-1.13006 0-2-.86994-2-2z" fill="#FFC107" stroke-width="4"/></svg>

<svg fill="#FFC107" height="48" version="1.1" viewBox="0 0 48 48" width="48" xmlns="http://www.w3.org/2000/svg"><path color="#000" d="M18.171875 4L16.171875 6 8 6 8 14 10 14 10 38C10 41.28994 12.71006 44 16 44L32 44C35.28994 44 38 41.28994 38 38L38 14 40 14 40 6 38 6 31.828125 6 29.828125 4 18.171875 4zM19.828125 8L28.171875 8 29.335938 9.164063 36.242188 9.164063 36.242188 12.166016 11.751953 12.166016 11.751953 9.164063 18.664062 9.164063 19.828125 8zM14 16L34 16 34 38C34 39.13006 33.13006 40 32 40L16 40C14.86994 40 14 39.13006 14 38L14 16z" fill="#FFC107" overflow="visible" stroke-width="4"/></svg>
